icons/svg/seamark/notice_prohibition_noturning.svg

<?xml version="1.0" encoding="UTF-8" standalone="no"?>
<svg
   xmlns:dc="http://purl.org/dc/elements/1.1/"
   xmlns:cc="http://creativecommons.org/ns#"
   xmlns:rdf="http://www.w3.org/1999/02/22-rdf-syntax-ns#"
   xmlns:svg="http://www.w3.org/2000/svg"
   xmlns="http://www.w3.org/2000/svg"
   xmlns:sodipodi="http://sodipodi.sourceforge.net/DTD/sodipodi-0.dtd"
   xmlns:inkscape="http://www.inkscape.org/namespaces/inkscape"
   width="320"
   height="320"
   id="svg2"
   version="1.1"
   inkscape:version="0.48.4 r9939"
   sodipodi:docname="notice_prohibition_noovertaking.svg">
  <defs
     id="defs13">
    <inkscape:path-effect
       effect="gears"
       id="path-effect3774"
       is_visible="true"
       teeth="6"
       phi="-1.2" />
    <inkscape:path-effect
       effect="bend_path"
       id="path-effect3772"
       is_visible="false"
       bendpath="m 95.790098,316.51174 c 144.429032,-206.42506 223.313032,-11.7428 339.548092,0"
       prop_scale="1.19"
       scale_y_rel="false"
       vertical="false"
       bendpath-nodetypes="cc" />
    <inkscape:path-effect
       effect="spiro"
       id="path-effect3775"
       is_visible="true" />
    <inkscape:path-effect
       effect="spiro"
       id="path-effect3775-9"
       is_visible="true" />
    <inkscape:path-effect
       effect="spiro"
       id="path-effect3775-7"
       is_visible="true" />
  </defs>
  <sodipodi:namedview
     pagecolor="#ffffff"
     bordercolor="#666666"
     borderopacity="1"
     objecttolerance="10"
     gridtolerance="10"
     guidetolerance="10"
     inkscape:pageopacity="0"
     inkscape:pageshadow="2"
     inkscape:window-width="1920"
     inkscape:window-height="1004"
     id="namedview11"
     showgrid="true"
     inkscape:zoom="1.1508772"
     inkscape:cx="152.24685"
     inkscape:cy="216.73021"
     inkscape:window-x="1680"
     inkscape:window-y="0"
     inkscape:window-maximized="1"
     inkscape:current-layer="svg2"
     inkscape:snap-bbox="true"
     inkscape:object-nodes="true"
     inkscape:snap-midpoints="true"
     inkscape:snap-grids="false"
     inkscape:snap-bbox-edge-midpoints="true"
     showguides="true"
     inkscape:guide-bbox="true">
    <inkscape:grid
       type="xygrid"
       id="grid2990"
       empspacing="5"
       visible="true"
       enabled="true"
       snapvisiblegridlinesonly="true"
       spacingx="10px"
       spacingy="10px"
       dotted="false" />
    <sodipodi:guide
       orientation="1,0"
       position="55.202458,260.58927"
       id="guide3872" />
    <sodipodi:guide
       orientation="1,0"
       position="265.17816,340"
       id="guide3874" />
    <sodipodi:guide
       orientation="0,1"
       position="317.80107,264.96094"
       id="guide3876" />
    <sodipodi:guide
       orientation="0,1"
       position="325.098,54.759006"
       id="guide3878" />
  </sodipodi:namedview>
  <metadata
     id="metadata2975">image/svg+xmlen<rdf:RDF>
  <cc:Work
     rdf:about="">
    <dc:format>image/svg+xml</dc:format>
    <dc:type
       rdf:resource="http://purl.org/dc/dcmitype/StillImage" />
    <dc:title></dc:title>
  </cc:Work>
</rdf:RDF>
</metadata>
  <path
     style="color:#000000;fill:#000000;fill-opacity:1;stroke:none;stroke-width:15.17103481;marker:none;visibility:visible;display:inline;overflow:visible;enable-background:accumulate"
     d="m 168.48484,154.77308 -37.66064,-1.30218 18.89801,-32.75195 5.74707,10.43053 c 0,0 29.91155,-16.21537 59.79144,13.50898 22.58066,22.46312 18.12943,74.15748 -55.26415,70.31212 -4.95466,-6.62169 -4.89829,-6.96526 -9.29429,-14.14775 64.5781,5.57526 70.94096,-26.87706 56.8661,-44.14814 -21.88986,-26.86078 -44.9682,-12.59042 -44.9682,-12.59042 l 5.88466,10.68881"
     id="path3772-3"
     inkscape:connector-curvature="0"
     sodipodi:nodetypes="ccccsccscc" />
  <path
     style="color:#000000;fill:#000000;fill-opacity:1;stroke:none;stroke-width:15.17103481;marker:none;visibility:visible;display:inline;overflow:visible;enable-background:accumulate"
     d="m 179.1215,122.62595 33.52974,-17.19815 -31.03473,-21.602556 -0.76439,11.884465 c 0,0 -32.82442,-5.313697 -58.40285,10.948221 -41.25743,26.23011 -50.28279,118.96428 43.58031,129.51683 2.4526,-6.41609 2.43772,-6.11226 5.70609,-13.36917 -75.982255,-3.19329 -77.592625,-78.40091 -43.08628,-103.29774 18.71344,-13.50202 51.25117,-9.05864 51.25117,-9.05864 l -0.77906,12.17674"
     id="path3772-3-2"
     inkscape:connector-curvature="0"
     sodipodi:nodetypes="ccccsccscc" />
</svg>

<svg width="320" height="320" viewBox="0 0 320 320" fill="none" xmlns="http://www.w3.org/2000/svg">
<path d="M168.485 154.773L130.824 153.471L149.722 120.719L155.469 131.149C155.469 131.149 185.381 114.934 215.261 144.658C237.841 167.121 233.39 218.816 159.997 214.97C155.042 208.349 155.098 208.005 150.702 200.823C215.28 206.398 221.643 173.946 207.568 156.674C185.679 129.814 162.6 144.084 162.6 144.084L168.485 154.773Z" fill="black"/>
<path d="M179.122 122.626L212.651 105.428L181.617 83.8252L180.852 95.7097C180.852 95.7097 148.028 90.396 122.449 106.658C81.1918 132.888 72.1665 225.622 166.03 236.175C168.482 229.759 168.467 230.062 171.736 222.806C95.7534 219.612 94.143 144.405 128.649 119.508C147.363 106.006 179.901 110.449 179.901 110.449L179.122 122.626" fill="black"/>
</svg>
